Papirus/48x48/apps/qvge.svg

<svg width="48" height="48" version="1" xmlns="http://www.w3.org/2000/svg">
 <rect x="4" y="4" width="40" height="40" rx="2" ry="2" style="fill:#e4e4e4"/>
 <path d="m6 4c-1.108 0-2 0.892-2 2v1c0-1.108 0.892-2 2-2h36c1.108 0 2 0.892 2 2v-1c0-1.108-0.892-2-2-2h-36z" style="fill:#ffffff;opacity:.2"/>
 <path d="m4 42v1c0 1.108 0.892 2 2 2h36c1.108 0 2-0.892 2-2v-1c0 1.108-0.892 2-2 2h-36c-1.108 0-2-0.892-2-2z" style="opacity:.2"/>
 <path d="m23.5 9a3.5 3.5 0 0 0-3.5 3.5 3.5 3.5 0 0 0 3 3.464844v3.035156h-1l1.5 2 1.5-2h-1v-3.035156a3.5 3.5 0 0 0 3-3.464844 3.5 3.5 0 0 0-3.5-3.5zm3.5 3.5 2 1.5v-1h4.035156a3.5 3.5 0 0 0 3.464844 3 3.5 3.5 0 0 0 3.5-3.5 3.5 3.5 0 0 0-3.5-3.5 3.5 3.5 0 0 0-3.464844 3h-4.035156v-1zm9.5 3.5-1.5 2h1v16.035156a3.5000024 3.5000024 0 0 0-2.964844 2.964844h-10.035156v-1l-2 1.5 2 1.5v-1h10.035156a3.5000024 3.5000024 0 0 0 3.464844 3 3.5000024 3.5000024 0 0 0 3.5-3.5 3.5000024 3.5000024 0 0 0-3-3.464844v-16.035156h1zm-15.5 21.5a3.5 3.5 0 0 0-3.5-3.5 3.5 3.5 0 0 0-3.5 3.5 3.5 3.5 0 0 0 3.5 3.5 3.5 3.5 0 0 0 3.5-3.5zm2.5-16.5a3.5 3.5 0 0 0-3.5 3.5h-3v-1l-2 1.5 2 1.5v-1h3.148438a3.5 3.5 0 0 0 3.351562 2.5 3.5 3.5 0 0 0 3.5-3.5 3.5 3.5 0 0 0-3.5-3.5zm-11.978516 0.02148a3.4782608 3.4782608 0 0 0-3.4785152 3.47852 3.4782608 3.4782608 0 0 0 3.4785152 3.478516 3.4782608 3.4782608 0 0 0 3.478516-3.478516 3.4782608 3.4782608 0 0 0-3.478516-3.478516zm14.478516 5.97852 0.353516 2.474609 0.707031-0.707031 5.171875 5.171875-0.707031 0.707031 2.474609 0.353516-0.353516-2.474609-0.707031 0.707031-5.171875-5.171875 0.707031-0.707031z" style="font-variation-settings:normal;opacity:.1;stop-color:#000000"/>
 <path d="m15 24 1.999999-1.5 1e-6 1 4 1e-6v0.999998l-4 1e-6v1z" style="fill:#999999;stop-color:#000000"/>
 <circle cx="23.5" cy="23.5" r="3.5" style="fill:#c162c9;stop-color:#000000"/>
 <circle cx="11.521739" cy="23.5" r="3.4782608" style="fill:#009688;stop-color:#000000"/>
 <path d="m23.499999 20-1.5-1.999999 1-1e-6 1e-6 -4h0.999998l1e-6 4h1z" style="fill:#999999;stop-color:#000000"/>
 <circle cx="23.5" cy="11.5" r="3.5" style="fill:#03a9f4;stop-color:#000000"/>
 <path d="M 27.000001,11.5 29,9.9999999 29.000001,11 34,11.000001 v 0.999998 L 29.000001,12 v 1 z" style="fill:#999999;stop-color:#000000"/>
 <circle cx="36.5" cy="11.5" r="3.5" style="fill:#ffc107;stop-color:#000000"/>
 <circle cx="17.5" cy="36.5" r="3.5" style="fill:#ffffff;stop-color:#000000"/>
 <path d="M 36.5,15.000001 38,17 l -1,1e-6 L 36.999999,34 H 36 V 17.000001 h -1 z" style="fill:#999999;stop-color:#000000"/>
 <path d="m21 36.5 1.999999-1.5 1e-6 1 11 1e-6v0.999999h-11v1z" style="fill:#999999;stop-color:#000000"/>
 <circle cx="36.500004" cy="36.499996" r="3.5000024" style="fill:#fa3e30;stop-color:#000000"/>
 <path d="m26 26 0.353553 2.474874 0.707108-0.707107 5.171572 5.171573-0.707107 0.707106 2.474874 0.353554-0.353554-2.474875-0.707107 0.707108-5.171572-5.171573 0.707107-0.707107z" style="fill:#999999;stop-color:#000000"/>
 <path d="m23.5 8a3.5 3.5 0 0 0-3.5 3.5 3.5 3.5 0 0 0 0.080078 0.5 3.5 3.5 0 0 1 3.419922-3 3.5 3.5 0 0 1 3.439453 2.876953 3.5 3.5 0 0 0 0.060547-0.376953 3.5 3.5 0 0 0-3.5-3.5zm13 0a3.5 3.5 0 0 0-3.5 3.5 3.5 3.5 0 0 0 0.080078 0.5 3.5 3.5 0 0 1 3.419922-3 3.5 3.5 0 0 1 3.439453 2.876953 3.5 3.5 0 0 0 0.060547-0.376953 3.5 3.5 0 0 0-3.5-3.5zm-13 12a3.5 3.5 0 0 0-3.5 3.5 3.5 3.5 0 0 0 0.080078 0.5 3.5 3.5 0 0 1 3.419922-3 3.5 3.5 0 0 1 3.439453 2.876953 3.5 3.5 0 0 0 0.060547-0.376953 3.5 3.5 0 0 0-3.5-3.5zm-11.978516 0.021484a3.4782608 3.4782608 0 0 0-3.4785152 3.478516 3.4782608 3.4782608 0 0 0 0.078125 0.5 3.4782608 3.4782608 0 0 1 3.4003902-2.978516 3.4782608 3.4782608 0 0 1 3.4375 2.978516 3.4782608 3.4782608 0 0 0 0.041016-0.5 3.4782608 3.4782608 0 0 0-3.478516-3.478516zm5.978516 12.978516a3.5 3.5 0 0 0-3.5 3.5 3.5 3.5 0 0 0 0.080078 0.5 3.5 3.5 0 0 1 3.419922-3 3.5 3.5 0 0 1 3.439453 2.876953 3.5 3.5 0 0 0 0.060547-0.376953 3.5 3.5 0 0 0-3.5-3.5zm19 0a3.5000024 3.5000024 0 0 0-3.5 3.5 3.5000024 3.5000024 0 0 0 0.080078 0.5 3.5000024 3.5000024 0 0 1 3.419922-3 3.5000024 3.5000024 0 0 1 3.419922 3 3.5000024 3.5000024 0 0 0 0.080078-0.5 3.5000024 3.5000024 0 0 0-3.5-3.5z" style="fill:#ffffff;opacity:.2;stop-color:#000000"/>
</svg>

<svg xmlns="http://www.w3.org/2000/svg" width="48" height="48" version="1">
 <rect style="opacity:0.2" width="40" height="40" x="4" y="5" rx="2" ry="2"/>
 <rect style="fill:#e4e4e4" width="40" height="40" x="4" y="4" rx="2" ry="2"/>
 <g style="opacity:0.1">
  <path d="M 26,27 26.354,29.475 27.061,28.768 32.232,33.939 31.525,34.646 34,35 33.646,32.525 32.939,33.232 27.768,28.061 28.475,27.354 Z M 21,37.5 23,36 V 37 H 34 V 38 H 23 V 39 Z M 36.5,16 38,18 H 37 V 35 H 36 V 18 H 35 Z M 27,12.5 29,11 V 12 H 34 V 13 H 29 V 14 Z M 23.5,21 22,19 H 23 V 15 H 24 V 19 H 25 Z M 15,24.5 17,23 V 24 H 21 V 25 H 17 V 26 Z"/>
  <path d="M 23.5,9 A 3.5,3.5 0 0 0 20,12.5 3.5,3.5 0 0 0 23.5,16 3.5,3.5 0 0 0 27,12.5 3.5,3.5 0 0 0 23.5,9 Z M 36.5,9 A 3.5,3.5 0 0 0 33,12.5 3.5,3.5 0 0 0 36.5,16 3.5,3.5 0 0 0 40,12.5 3.5,3.5 0 0 0 36.5,9 Z M 11.5,21 A 3.5,3.5 0 0 0 8,24.5 3.5,3.5 0 0 0 11.5,28 3.5,3.5 0 0 0 15,24.5 3.5,3.5 0 0 0 11.5,21 Z M 23.5,21 A 3.5,3.5 0 0 0 20,24.5 3.5,3.5 0 0 0 23.5,28 3.5,3.5 0 0 0 27,24.5 3.5,3.5 0 0 0 23.5,21 Z M 17.5,34 A 3.5,3.5 0 0 0 14,37.5 3.5,3.5 0 0 0 17.5,41 3.5,3.5 0 0 0 21,37.5 3.5,3.5 0 0 0 17.5,34 Z M 36.5,34 A 3.5,3.5 0 0 0 33,37.5 3.5,3.5 0 0 0 36.5,41 3.5,3.5 0 0 0 40,37.5 3.5,3.5 0 0 0 36.5,34 Z"/>
 </g>
 <path style="fill:#999999" d="M 26,26 26.354,28.475 27.061,27.768 32.232,32.939 31.525,33.646 34,34 33.646,31.525 32.939,32.232 27.768,27.061 28.475,26.354 Z M 21,36.5 23,35 V 36 H 34 V 37 H 23 V 38 Z M 36.5,15 38,17 H 37 V 34 H 36 V 17 H 35 Z M 27,11.5 29,10 V 11 H 34 V 12 H 29 V 13 Z M 23.5,20 22,18 H 23 V 14 H 24 V 18 H 25 Z M 15,23.5 17,22 V 23 H 21 V 24 H 17 V 25 Z"/>
 <path style="fill:#ffffff;opacity:0.2" d="m6 4c-1.108 0-2 0.892-2 2v1c0-1.108 0.892-2 2-2h36c1.108 0 2 0.892 2 2v-1c0-1.108-0.892-2-2-2h-36z"/>
 <circle style="fill:#c162c9" cx="23.5" cy="23.5" r="3.5"/>
 <circle style="fill:#009688" cx="11.5" cy="23.5" r="3.5"/>
 <circle style="fill:#03a9f4" cx="23.5" cy="11.5" r="3.5"/>
 <circle style="fill:#ffc107" cx="36.5" cy="11.5" r="3.5"/>
 <circle style="fill:#f4f4f4" cx="17.5" cy="36.5" r="3.5"/>
 <circle style="fill:#fa3e30" cx="36.5" cy="36.5" r="3.5"/>
 <path style="opacity:0.2;fill:#ffffff" d="M 23.5 8 A 3.5 3.5 0 0 0 20 11.5 A 3.5 3.5 0 0 0 20.035 11.998 A 3.5 3.5 0 0 1 23.5 9 A 3.5 3.5 0 0 1 26.965 11.998 A 3.5 3.5 0 0 0 27 11.5 A 3.5 3.5 0 0 0 23.5 8 z M 36.5 8 A 3.5 3.5 0 0 0 33 11.5 A 3.5 3.5 0 0 0 33.035 11.998 A 3.5 3.5 0 0 1 36.5 9 A 3.5 3.5 0 0 1 39.965 11.998 A 3.5 3.5 0 0 0 40 11.5 A 3.5 3.5 0 0 0 36.5 8 z M 11.5 20 A 3.5 3.5 0 0 0 8 23.5 A 3.5 3.5 0 0 0 8.0352 23.998 A 3.5 3.5 0 0 1 11.5 21 A 3.5 3.5 0 0 1 14.965 23.998 A 3.5 3.5 0 0 0 15 23.5 A 3.5 3.5 0 0 0 11.5 20 z M 23.5 20 A 3.5 3.5 0 0 0 20 23.5 A 3.5 3.5 0 0 0 20.035 23.998 A 3.5 3.5 0 0 1 23.5 21 A 3.5 3.5 0 0 1 26.965 23.998 A 3.5 3.5 0 0 0 27 23.5 A 3.5 3.5 0 0 0 23.5 20 z M 17.5 33 A 3.5 3.5 0 0 0 14 36.5 A 3.5 3.5 0 0 0 14.035 36.998 A 3.5 3.5 0 0 1 17.5 34 A 3.5 3.5 0 0 1 20.965 36.998 A 3.5 3.5 0 0 0 21 36.5 A 3.5 3.5 0 0 0 17.5 33 z M 36.5 33 A 3.5 3.5 0 0 0 33 36.5 A 3.5 3.5 0 0 0 33.035 36.998 A 3.5 3.5 0 0 1 36.5 34 A 3.5 3.5 0 0 1 39.965 36.998 A 3.5 3.5 0 0 0 40 36.5 A 3.5 3.5 0 0 0 36.5 33 z"/>
</svg>
